X:14601
T:Rowley. JC.072
T:Frog He Would A-Wooing Go,aka. JC.072
M:6/8
L:1/8
Q:100
S:John Clare,Poet,Helpston. (1793-1864)
R:Air
O:England
A:Northamptonshire
N:
Z:P Headford
K:D
A|d2dA2A|F2AD3|d3f2d|ce2z2A|B2Bd2B|A2GF3|!
BAB dcB|ABG FGA|G2BF2A|EFG ABc|d2A ABG|FDz2{c}{c}|]
W:Song text exists. See Deacon.
